assets/images/icons/src/times-circle-o.svg

<?xml version="1.0" encoding="utf-8"?>
<!-- Generated by IcoMoon.io -->
<!DOCTYPE svg PUBLIC "-//W3C//DTD SVG 1.1//EN" "http://www.w3.org/Graphics/SVG/1.1/DTD/svg11.dtd">
<svg version="1.1" xmlns="http://www.w3.org/2000/svg" xmlns:xlink="http://www.w3.org/1999/xlink" width="12" height="14" viewBox="0 0 12 14">
<path fill="#444444" d="M8.57 8.43l-1.141 1.141q-0.078 0.078-0.18 0.078t-0.18-0.078l-1.070-1.070-1.070 1.070q-0.078 0.078-0.18 0.078t-0.18-0.078l-1.141-1.141q-0.078-0.078-0.078-0.18t0.078-0.18l1.070-1.070-1.070-1.070q-0.078-0.078-0.078-0.18t0.078-0.18l1.141-1.141q0.078-0.078 0.18-0.078t0.18 0.078l1.070 1.070 1.070-1.070q0.078-0.078 0.18-0.078t0.18 0.078l1.141 1.141q0.078 0.078 0.078 0.18t-0.078 0.18l-1.070 1.070 1.070 1.070q0.078 0.078 0.078 0.18t-0.078 0.18zM10.25 7q0-1.156-0.57-2.133t-1.547-1.547-2.133-0.57-2.133 0.57-1.547 1.547-0.57 2.133 0.57 2.133 1.547 1.547 2.133 0.57 2.133-0.57 1.547-1.547 0.57-2.133zM12 7q0 1.633-0.805 3.012t-2.184 2.184-3.012 0.805-3.012-0.805-2.184-2.184-0.805-3.012 0.805-3.012 2.184-2.184 3.012-0.805 3.012 0.805 2.184 2.184 0.805 3.012z"></path>
</svg>

<svg xmlns="http://www.w3.org/2000/svg" width="12" height="14" viewBox="0 0 12 14"><path fill="#444" d="M8.57 8.43L7.429 9.571q-.078.078-.18.078t-.18-.078l-1.07-1.07-1.07 1.07q-.078.078-.18.078t-.18-.078L3.428 8.43q-.078-.078-.078-.18t.078-.18L4.498 7l-1.07-1.07q-.078-.078-.078-.18t.078-.18l1.141-1.141q.078-.078.18-.078t.18.078l1.07 1.07 1.07-1.07q.078-.078.18-.078t.18.078L8.57 5.57q.078.078.078.18t-.078.18L7.5 7l1.07 1.07q.078.078.078.18t-.078.18zM10.25 7q0-1.156-.57-2.133T8.133 3.32 6 2.75t-2.133.57T2.32 4.867 1.75 7t.57 2.133 1.547 1.547T6 11.25t2.133-.57T9.68 9.133 10.25 7zM12 7q0 1.633-.805 3.012t-2.184 2.184-3.012.805-3.012-.805-2.184-2.184T-.002 7t.805-3.012 2.184-2.184T5.999.999t3.012.805 2.184 2.184T12 7z"/></svg>
